X:1
T:Christ lag in Todesbanden
T:Balthasar Resinarius
T:Source : DDT 34---Leipzig---Breitkopf & Härtel---J.Wolf---1908. First print : Newe Deudsche Geistliche Gesenge---Wittemberg---G.Rhau---1544. Editor : André Vierendeels (31/08/17).
T:Notes : Original clefs : C1, C3, C4, F4 Original note values have been halved Editorial accidentals above the staff m 15 in B, 'D" notated as "B" in original print
T:Christ lag in Todesbanden
T:©
T:©
T:©
T:©
C:Balthasar Resinarius
Z:©
%%score [ 1 [ 2 3 ] 4 ]
L:1/8
Q:1/4=120
M:2/2
K:C
V:1 treble nm="Soprano" snm="S"
V:2 treble-8 nm="Tenor 1" snm="T 1"
V:3 treble-8 nm="Tenor 2" snm="T 2"
V:4 bass nm="Bass" snm="B"
V:1
 z8 | A8 | G4 A4 | c4 d4 | c3 B/A/ B4 | A4 z2 c2- | cBBA c3 B | c2 A4 G2 | A4 A4 | F4 G4 | A6 GF | %11
w: |Christ|lag in|To- des-|ban- * * *|den, in|_ _ _ _ To- des|ban- * *|den, für|un- ser|Sünd ge _|
w: |Der|ist wie-|der er-|stan- * * *|den, wie|_ _ _ _ der er-|stan- * *|den, und|hat uns|bracht das _|
 E2 D2 A3 G | F2 E2 D2 E2- | ED D4 C2 |1 D8 :|2 D4 D4 || F4 G4 | D2 A3 BcA | B4 A4- | A2 GF E4- | %20
w: ge- * * *|||ben.|ben. Des|wir sol-|len fröh- * * *||* lich _ sein|
w: Le- * * *|||||||||
 E4 z2 A2 | d4 c4 | d4 e4 | dcBA B4 | c3 B G3 F | E2 A3 GGF | A2 A2 c4 | A6 c2- | c2 BA G4 | %29
w: , Gott|lo- ben|und dank-|||* bar _ _ _|sein, und sin-|gen Hal-|* * * le-|
w: |||||||||
 F2 E2 D2 E2- | ED D4 C2 | D2 A2 A2 GF | G2 E2 F4- | F2 E2 D2 E2- | ED D4 C2 | D8 |] %36
w: lu- * * *||ia, Hal- le- * *|* * lu-|||ia.|
w: |||||||
V:2
 z8 | z8 | z4 A4 | G4 A4 | c4 d4 | c3 d e3 f | g4 e2 e2- | e2 d2 e3 d | ec f4 e2 | d3 c B4 | %10
w: ||Christ|lag in|To- des-|ban- * * *|* den, [To-|* des ban- *||* * den,]|
w: ||Der|ist wider|er- stan-||* den [er-|* * stan- *||* * den,]|
 z2 A2 A3 B | c2 d2 c4- | c2 c2 B2 A2- | AGGF A4 |1 z8 :|2 F2 _B4 AG || A4 G4 | A2 F3 G A2 | %18
w: für un- *|* ser Sünd|_ ge- ge- *|* * * * ben.||ben. Des _ _|wir sol-|len fröh- * *|
w: und hat _|_ uns bracht|_ das Le- *|* * * * ben.|||||
 G4 A4 | A3 B c4 | z2 c4 c2 | f4 e2 c2- | c2 B2 c2 G2 | G4 z4 | z2 G2 c4 | c3 d e4 | cBcd e2 c2- | %27
w: |* lich sein,|Gott lo-|ben und dank-|* * * bar|sein,|Gott lo-|ben und dank-||
w: |||||||||
 cBAG A4 | F4 G2 c2- | c2 c2 B2 A2- | A2 G2 A4 | F2 D2 ABcd | e4 d4 | c4 B2 A2- | AGGF A4 | A8 |] %36
w: * * * * bar|sein, und sin-|* gen Hal- le-|* lu- ia,|Hal- le- lu- * * *||||ia.|
w: |||||||||
V:3
 z8 | z8 | z8 | z4 A4- | A4 G4 | A4 c4 | d4 c4 | A4 B4 | A8 | z8 | A4 F4 | G4 A4- | A2 G2 F2 E2 | %13
w: |||Christ|_ lag|in To-|des- ban-||den,||für un-|ser Sünd|_ ge- ge- *|
w: |||Der|_ ist|wie- der|er- stan-||den,||und hat|uns bracht|_ das Le- *|
 D4 E4 |1 D8 :|2 D8 || z8 | D4 F4 | G4 D4 | F4 G4 | A8 | z4 z2 A2 | d4 c4 | d8 | e8 | c4 B4 | A8 | %27
w: |ben.|ben.||Des wir|sol- len|fröh- lich|sein,|Gott|lo- ben|und|dank-|* bar|sein,|
w: ||||||||||||||
 A4 c4 | A4 c3 B | A2 G2 F2 E2 | D4 E4 | D8 | z4 A4- | A2 G2 F2 E2 | D4 E4 | D8 |] %36
w: und sin-|gen Hal- *|* le- lu- *||ia,|Hal-|* le- lu- *||ia.|
w: |||||||||
V:4
 D,4 C,4 | D,4 F,4 | G,4 F,2 E,D, | E,4 D,4 | z8 | z2 F,2 E,2 C,2 | G,4 A,3 G, | F,4 E,4 | %8
w: Christ lag|in To-|des- ban- * *|* den,||Christ lag in|To- des- *|* ban-|
w: Der ist|wie- der|er- stan- * *|* den,||der ist wie-|der er- *|* stan-|
 A,,2 D,4 C,2 | D,4 E,4 | F,6 E,D, | C,2 B,,2 A,,4 | z2 C,2 D,2 A,,2 | B,,4 A,,4 |1 D,8 :|2 %15
w: |den, für|un- * *|* ser Sünd|ge- ge- *||ben.|
w: |den, und|hat _ _|_ uns bracht|das Le- *|||
"^b""^b" B,,2 G,,3 A,,B,,C, || D,4 G,,4 | D,4 z4 | E,4 F,4- | F,2 E,D, C,3 B,, | A,,2 A,3 G,F,E, | %21
w: ben. Des _ _ _|wir sol-|len|fröh- *|* * * * lich|sein, Gott _ _ _|
w: ||||||
 D,2 D,2 A,4 | G,4 C,4 | G,8 | C,8 | C,2 A,,2 E,4 | A,,4 z2 A,2- | A,G,F,E, F,4- | %28
w: lo- ben und|dank- *|bar|sein,|und dank- bar|sein, und|_ _ _ _ sin-|
w: |||||||
 F,2 F,2 C,3 D,/E,/ | F,2 C,2 D,2 A,,2 |"^#" B,,4 A,,4 | A,2 F,4 E,D, | C,4 D,4 | z2 C,2 D,2 A,,2 | %34
w: * gen Hal- * *|* le- lu- *|* ia,|Hal- le- * *|lu- ia,|Hal- le- *|
w: ||||||
 B,,4 A,,4 | D,8 |] %36
w: lu- *|ia.|
w: ||

